X:4
T:Boerenveugdt
O:Vlaanderen
M:2/4
L:1/8
P:A
Q:1/4=80
K:F
F>F E>E | D>D C2 | F>F E>E | D>D C2 |
A>A G2 | A>A G2 | A>A G>G |1 A>A G2 :|2 A>A G G/G/ |
P:B
Q:1/4=120
K:C
|: Ge dc | BA GG | G^F/G/ AG | G^F/G/ AG |
Ge dc | BA GG | G^F/G/ AB |1 c2 z G/G/ :|2 c2 z A |
G3 A | G3 c | d3 c/d/ | e2 cA |
G3 A | G3 c | d3 c/B/ | c z ||
